!!!COM: Frank Martin
!!!OTL: [T542_Mai-w11p27h14m1-10]
**kern	**kern	**dynam	**kern	**dynam
*grp:A	*grp:A	*	*grp:B	*
*part2	*part2	*part2	*part1	*part1
*staff3	*staff2	*	*staff1	*
*I"Piano	*	*	*I"Violoncello	*
*I'Pno.	*	*	*I'Vc.	*
*ICklav	*ICklav	*	*ICstr	*
*Ipiano	*Ipiano	*	*Icello	*
*clefG2	*clefG2	*	*clefF4	*
*k[]	*k[]	*	*k[]	*
*C:	*C:	*	*C:	*
*M4/4	*M4/4	*	*M4/4	*
*met(c)	*met(c)	*	*met(c)	*
=1	=1	=1	=1	=1
!!LO:TX:t=[Più mosso [half]=108]
!	!	!LO:DY:t= meno %s	!	!
4e-X' 4g-X 4cc-X	2gg-X 2eee-X)j	4ryy	2ryy	4ryy
8e-'L 8g- 8b-X	.	.	.	.
8e-'J 8g- 8b-	.	.	.	.
4e-' 4g- 4cc-	(4ff 4ddd-X	.	2ryy	.
8e-'L 8g- 8b-	4gg- 4eee-	.	.	.
8e-'J 8g- 8b-	.	.	.	.
=2	=2	=2	=2	=2
4e-X' 4g-X 4cc-X	4ff 4ddd-X)	.	4ryy	.
4e-' 4g- 4b-X	2ee-X 2cccn	.	2ryy	.
4e-' 4g- 4cc-	.	.	.	.
4e-' 4g- 4b-	(4dd-X 4bb-X	.	4ryy	.
=3	=3	=3	=3	=3
4e-X' 4g-X 4cc-X	4ee-X 4ccc	.	2ryy	.
8e-'L 8g- 8b-X	4ff 4ddd-X)	.	.	.
8e-'J 8g- 8b-	.	.	.	.
4e-' 4g- 4cc-	(4gg-X 4eee-X	.	2ryy	.
8e-'L 8g- 8b-	4aa-X 4fff)	.	.	.
8e-'J 8g- 8b-	.	.	.	.
=4	=4	=4	=4	=4
4e-X' 4g-X 4cc-X	(8gg-XL 8eee-X	.	4ryy	.
.	8aa-XJ 8fff	.	.	.
4e-' 4g- 4ccn	2bb-X 2ggg-X)	.	2ryy	.
4e-' 4g- 4dd-X	.	.	.	.
4e-' 4g- 4cc	[4ccc [4aaa-X	.	4ryy	.
=5	=5	=5	=5	=5
4e-X' 4g-X 4cc-X	4ccc] 4aaa-]	.	4ryy	.
!	!LO:TUP:a	!	!	!
4e-' 4g- 4b-X	(12bb-XL 12ggg-X	.	4ryy	.
.	12aaa-X	.	.	.
.	12ggg-J	.	.	.
!	!LO:TUP:a	!	!	!
4e-' 4g- 4cc-	12aa-XL 12fff	.	4ryy	.
.	12ggg-	.	.	.
.	12fffJ	.	.	.
4e-' 4g- 4b-	[4gg-X [4eee-X	.	4ryy	.
=6	=6	=6	=6	=6
4e-X' 4g-X 4cc-X	8gg-XL] 8eee-X])	.	4ryy	.
.	8ff'J 8ddd-X	.	.	.
4d-X' 4g- 4b	2ee-X 2ccc	.	4ryy	4ryy
4cn' 4g- 4a-X	.	.	4ryy	.
*clefF4	*	*	*	*
4CC 4C	(>16enLL	4ryy	8ryy	.
.	16f	.	.	.
.	16f#X	.	8ryy	4ryy
.	16gnJJ	4ryy	.	.
=7	=7	=7	=7	=7
!	!	!	!LO:TX:b:i:t=dolce	!
4FFF 4FF	4An 4e-X 4a-X)	4ryy	2ryy	.
4CC 4C	8AL 8e- 8g	.	.	.
.	8AJ 8e- 8g	.	.	.
4FFF 4FF	4A 4e- 4a-	.	4ryy	.
4CC 4C	8AL 8e- 8g	.	4ryy	.
.	8AJ 8e- 8g	.	.	.
=8	=8	=8	=8	=8
4FFF 4FF	4A 4e-X 4a-X	.	4ryy	.
4CC 4C	4A 4e- 4g	.	2ryy	.
4FFF 4FF	4A 4e- 4a-	.	.	.
4CCC 4CC	(>16enLL	.	4ryy	.
.	16f	.	.	.
.	16f#X	.	.	.
.	16gJJ	.	.	.
=9	=9	=9	=9	=9
4FFF 4FF	4A 4e-X 4a-X)	.	4ryy	.
4CC 4C	8AL 8e- 8g	.	4ryy	4ryy
.	8AJ 8e- 8g	.	.	.
4FFF 4FF	4A 4e- 4a-	.	4ryy	.
4CC 4C	8AL 8e- 8g	.	4ryy	.
.	8AJ 8e- 8g	.	.	.
=10	=10	=10	=10	=10
4FFF 4FF	4A 4e-X 4a-X	.	8ryy	.
.	.	.	8ryy	4ryy
4CC 4C	4A 4e- 4g	.	2ryy	.
4FFF 4FF	4A 4e- 4a-	.	.	.
4CCC 4CC	(16enLLi	.	4ryy	.
.	16f	.	.	.
.	16f#X	.	.	.
.	16gJJ	.	.	.
=	=	=	=	=
*-	*-	*-	*-	*-
!!!system-decoration: s1[({(s2,s3)})]
!!!RDF**kern: i = marked note, color="hotpink", text="extra("
!!!RDF**kern: j = marked note, color="magenta", text="extra)"
!!!RDF**kern: N = hairpin accent
!!!RDF**kern: > = above
!!!EED: Claudio de Freitas
!!!EED2: Jason Lee
!!!EEV2: 2022/02/17
